X:1
T:Maliserknut Springdansen
T:Maliserknut Springdansen
T:Violin stemmes i A. E. A. CIS.
%%score ( 1 2 )
L:1/8
M:3/4
K:A
V:1 treble nm="Piano" snm="Pno."
V:2 treble 
V:1
!p! c3 d B>c | A2"^pizz." !0!c2 !0!A2 |"^arco" c2 A>c B>!2!G | (3ABc (3BG!1!F !0!E2 | %4
 !2!C3 !3!D !1!B,!3!C | !0!A,2"^pizz." c2 A2 |"^arco" c2 A>c (3BA!2!G | G2 A2 !0!E2 | %8
!mf! [Ec]2 c>d !4!e2 | [EB]2 B>d c2 | [Ec]2 c>d e2 | [EB]3 d c2 |!f! c2 (c>d) e2 | d2 (B>d) c2 | %14
 c2 (c>d) e2 | [EB]4 A2 |] %16
V:2
 x6 | x6 | x6 | x6 | x6 | x6 | x6 | x6 | x6 | x6 | x6 | x6 | E2 E2 E2 | E2 E2 E2 | E2 E2 E2 | x6 |] %16

